public/img/icons/iam-temporary-icon.svg

<svg fill="none" height="64" viewBox="0 0 64 64" width="64" xmlns="http://www.w3.org/2000/svg" xmlns:xlink="http://www.w3.org/1999/xlink"><mask id="a" height="20" maskUnits="userSpaceOnUse" width="32" x="12" y="34"><path clip-rule="evenodd" d="m44 34v8 8c0 2.2091-7.1634 4-16 4s-16-1.7909-16-4v-8-8z" fill="#fff" fill-rule="evenodd"/></mask><g stroke="#000" stroke-width="2"><path d="m44.7239 40.7932c-5.7187 7.1052-12.7239 9.2068-12.7239 9.2068s-20-6-20-32c8 0 12-8 12-8h2m20.7216 28c3.0095-4.7544 5.2784-11.2427 5.2784-20-8 0-12-8-12-8h-10" stroke-linecap="round" stroke-linejoin="round"/><circle cx="32" cy="22" fill="#fff" r="4"/><path d="m40 34.3333c0 2.2092-3.5817 2.6667-8 2.6667s-8-.4575-8-2.6667c0-2.2091 3.5817-5.3333 8-5.3333s8 3.1242 8 5.3333z" fill="#fff"/><path d="m13 5h-4c-2.20914 0-4 1.79086-4 4v4" stroke-linecap="round" stroke-linejoin="round"/><path d="m51 5h4c2.2091 0 4 1.79086 4 4v4" stroke-linecap="round" stroke-linejoin="round"/><path d="m5 51v4c0 2.2091 1.79086 4 4 4h4" stroke-linecap="round" stroke-linejoin="round"/><path d="m59 51v4c0 2.2091-1.7909 4-4 4h-4" stroke-linecap="round" stroke-linejoin="round"/><rect fill="#fff" height="8" rx="4" width="28" x="18" y="46"/></g><circle cx="23" cy="50" fill="#000" r="2"/><circle cx="29" cy="50" fill="#000" r="2"/><circle cx="35" cy="50" fill="#000" r="2"/><circle cx="41" cy="50" fill="#000" r="2"/><g mask="url(#a)"><circle cx="40" cy="53" fill="#000" r="8" stroke="#000" stroke-width="2"/></g><circle cx="42" cy="51" fill="#fff" r="8"/><path d="m46 57.9297c-1.1767.6807-2.5429 1.0703-4 1.0703-4.4183 0-8-3.5817-8-8s3.5817-8 8-8 8 3.5817 8 8c0 1.8078-.5996 3.4755-1.6108 4.8151" stroke="#000" stroke-linecap="round" stroke-width="2"/><path d="m42 48v3h5" stroke="#000" stroke-linecap="round" stroke-linejoin="round" stroke-width="2"/></svg>

<svg width="64" height="64" viewBox="0 0 64 64" fill="none" xmlns="http://www.w3.org/2000/svg">
<path d="M44.7239 40.7932C39.0052 47.8984 32 50 32 50C32 50 12 44 12 18C20 18 24 10 24 10H26M46.7216 38C49.7311 33.2456 52 26.7573 52 18C44 18 40 10 40 10H30" stroke="black" stroke-width="2" stroke-linecap="round" stroke-linejoin="round"/>
<circle cx="32" cy="22" r="4" fill="white" stroke="black" stroke-width="2"/>
<path d="M40 34.3333C40 36.5425 36.4183 37 32 37C27.5817 37 24 36.5425 24 34.3333C24 32.1242 27.5817 29 32 29C36.4183 29 40 32.1242 40 34.3333Z" fill="white" stroke="black" stroke-width="2"/>
<path d="M13 5H9C6.79086 5 5 6.79086 5 9V13" stroke="black" stroke-width="2" stroke-linecap="round" stroke-linejoin="round"/>
<path d="M51 5H55C57.2091 5 59 6.79086 59 9V13" stroke="black" stroke-width="2" stroke-linecap="round" stroke-linejoin="round"/>
<path d="M5 51V55C5 57.2091 6.79086 59 9 59H13" stroke="black" stroke-width="2" stroke-linecap="round" stroke-linejoin="round"/>
<path d="M59 51V55C59 57.2091 57.2091 59 55 59H51" stroke="black" stroke-width="2" stroke-linecap="round" stroke-linejoin="round"/>
<rect x="18" y="46" width="28" height="8" rx="4" fill="white" stroke="black" stroke-width="2"/>
<circle cx="23" cy="50" r="2" fill="black"/>
<circle cx="29" cy="50" r="2" fill="black"/>
<circle cx="35" cy="50" r="2" fill="black"/>
<circle cx="41" cy="50" r="2" fill="black"/>
<mask id="mask0_274_45" style="mask-type:alpha" maskUnits="userSpaceOnUse" x="12" y="34" width="32" height="20">
<path fill-rule="evenodd" clip-rule="evenodd" d="M44 34V42V50C44 52.2091 36.8366 54 28 54C19.1634 54 12 52.2091 12 50V42V34H44Z" fill="white"/>
</mask>
<g mask="url(#mask0_274_45)">
<circle cx="40" cy="53" r="8" fill="black" stroke="black" stroke-width="2"/>
</g>
<circle cx="42" cy="51" r="8" fill="white"/>
<path d="M46 57.9297C44.8233 58.6104 43.4571 59 42 59C37.5817 59 34 55.4183 34 51C34 46.5817 37.5817 43 42 43C46.4183 43 50 46.5817 50 51C50 52.8078 49.4004 54.4755 48.3892 55.8151" stroke="black" stroke-width="2" stroke-linecap="round"/>
<path d="M42 48V51H47" stroke="black" stroke-width="2" stroke-linecap="round" stroke-linejoin="round"/>
</svg>
